X:1
T:Madrigal
T:Madrigal
T:Cécile Chaminade
T:Georges van Ormelingen
T:(ALTO)
T:OpenScore (CC0)
T:OpenScore (CC0)
T:OpenScore (CC0)
T:OpenScore (CC0)
T:OpenScore (CC0)
C:Cécile Chaminade
Z:Georges van Ormelingen
Z:OpenScore (CC0)
%%score ( 1 2 ) { ( 3 5 ) | ( 4 6 ) }
L:1/8
M:2/4
K:C
V:1 treble nm="Voice"
V:2 treble 
V:3 treble nm="Piano"
V:5 treble 
V:4 bass 
V:6 bass 
V:1
 z4[Q:1/4=72]"^Allegretto molto moderato. (.)" | z4 |[Q:1/4=77] z4 | z4 |[Q:1/4=82] z4 | z4 | %6
w: ||||||
w: ||||||
[Q:1/4=62]"_rit." z4 |[Q:1/4=72]"_a tempo." z4 | z2"^ben moderato."!p! G ^G/ G/ | %9
w: ||Tes doux bai-|
w: ||What the *|
 A (3(F/=G/F/) E D |!<(! x2!<)! B/ d/ c/ A/ | G!p! ^G/ B/ (AF) | E2"^cresc." G A | %13
w: sers sont * * des oi-||fous, sur mes lè- *|vres, Ils y|
w: rain is * * to the||mur- mur'd * vows to|me; Its red|
 B A/ G/ B (A/G/) | B B!f! d ^d/ d/ | e (3(c/=d/c/) B A | G2!p! G A/ A/ | B ((c/A/)) B (c/A/) | %18
w: ver- sent l'ou- bli des *|fiè- vres. Tes doux bai-|sers sont * * des oi-|seaux, Aus- si lé-|gers que * des ro- *|
w: soul a- * wakes and *|glows, * And 'tis *|more than * * joy to|be; When thy *|soft lips * make re- *|
 B2 G A |[Q:1/4=62]"^poco rit." B c/ A/ B (c/A/) | (e4 | %21
w: seaux, Fou- lés|par les pieds blancs des *|chè-|
w: ply Of their|sweet- ness * to my *|sigh.|
 E2)"^dolciss."!ppp![Q:1/4=50]"^molto rit." G ^G/ G/ | %22
w: vres. Tes doux  bai-|
w: * What the *|
[Q:1/4=72]"^a tempo."[Q:1/4=72]"_a tempo." A (3(F/=G/F/)"^cresc." E D | c2 B/ d/ c/ A/ | %24
w: sers sont * * des oi-|seaux Qui vol- ti- gent|
w: rain is * * to the|rose, Are * thy *|
[Q:1/4=60]"^rit." G!p! C/ A/ G2 |[Q:1/4=72]"_a tempo."[Q:1/4=72]"^a tempo." C2 z2 | z4 | z4 | z4 | %29
w: fous, sur mes lè-|vres.||||
w: mur- mur'd * vows|me!||||
 z4 | z4 |[Q:1/4=60]"_rit." z4 |[Q:1/4=72]"_a tempo." z4 | z2!p! G/ G/ ^G/ G/ | (A (3F/=G/F/) E D | %35
w: ||||Com- me de fri-|vo- * * * les oi-|
w: ||||What * the *|rose is * * to the|
!<(! c2!<)! B/ d/ c/ A/ | G!p!!p! ^G/ B/ (AF) | E2 G A/ A/ |"^cresc." B (A/G/) B (A/G/) | %39
w: seaux Aux ai- les d'ar-|gent, aux becs miè- *|vres, Ain- si que|sur des * ar- bris- *|
w: rain, Is * thy *|low sweet * voice to|me, Each dew- *|pearl to * stay were *|
 B2!f! d ^d/ d/ | e (3(c/=d/c/) B A | G !breath!G!p! G/ G/ A | B (c/A/) B (c/A/) | %43
w: seaux Ils vien- nent|chan- ter * * sur mes|lè- vres, Com- me sculp-|tés par * des or- *|
w: fain, And thy *|words would * * ling' ring|be! * What * in|ten- der * shy con- *|
 !breath!B2!pp! G A |"^poco rit." B (c/A/) B c/ A/ | e4- | %46
w: fèvres A- vec|de ma- * gi- ques ci-|seaux.|
w: straint, You may|an- swer * to my *|plaint;|
 e2!pp!"^dolciss."[Q:1/4=50]"^molto rit." G ^G/ G/ | %47
w: * Tes bai- sers|
w: * What the *|
[Q:1/4=72]"_a tempo."[Q:1/4=72]"^a tempo." A (3(F/=G/F/)"^cresc." E D | c2 B/ d/ c/ A/ | %49
w: di- sent, * * doux oi-|seaux, Leur  chan- son d'a-|
w: rose is * * to the|rain, Is * thy *|
[Q:1/4=60]"^rit." G!p![Q:1/4=55]"^T" C/ A/[Q:1/4=50]"^T" G2 | %50
w: mour sur mes lè-|
w: low sweet * voice|
[Q:1/4=72]"_a  tempo."[Q:1/4=72]"^a tempo." C2 z2 | z4 | z4 |] %53
w: vres.|||
w: me!|||
V:2
 x4 | x4 | x4 | x4 | x4 | x4 | x4 | x4 | x2 G ^G | x4 | c2 (B/d/) (c/A/) | x (^G/B/) A F | x4 | %13
w: ||||||||||seaux Qui vol- ti- gent|||
w: ||||||||||rose, Are * thy *|||
 x (A/G/) x2 | B2 d ^d | x4 | x3 A | x4 | x4 | x (c/A/) x2 | x4 | x2 G ^G | x4 | x2 (B/d/) (c/A/) | %24
w: |||||||||||
w: |||||||||||
 G (C/A/) G G | x4 | x4 | x x x2 | x4 | x4 | x4 | x4 | x4 | x2 G ^G | A(3(F/G/F/) x2 | %35
w: |||||||||||
w: * * * * to|||||||||||
 x2 (B/d/) (c/A/) | G (^G/B/) A F | x2 G A | x4 | x2 d ^d | x4 | G2 G A | x4 | x4 | x3 c/A/ | x4 | %46
w: |||||||||||
w: |||||||||||
 x2 G ^G | x4 | x2 (B/d/) (c/A/) | G (C/A/) G G | x4 | x4 | x4 |] %53
w: |||||||
w: |||* * * * to||||
V:3
 z2!p! G^G | A[G,=B,F][G,B,E][G,B,D] | D^C (3EG^G |"_cresc." A[=G,=B,F][G,B,E][G,B,D] | %4
!<(! (D^C E/G/_B/!<)!^c/) |!f! d ([A,=CF][A,CE][A,CD] |"_dim." a) ([Acf][Ace][Acd] | %7
!p!!8va(!a') ([gbf'][gbe'][gbd']- | [gbd'])!8va)! z!p! (G,/[CE]/"_legato."^G,/[CE]/) | %9
 (A,/[B,F])[B,F]/ =G,/[B,E]/F,/[B,D]/ | (E,/[CE])[CE]/ (^F/[A,C])[A,C]/ | G^F =F2 | %12
 E2"_cresc." (G,/[EG]/A,/[EG]/) | (B,/[GB])[GB]/ (C/[GB])[GB]/ | (^C/[GB])[GB]/!f! (D/[GB])[GB]/ | %15
 (E/[^Fc])[Fc]/ (D/[FB]/C/[FA]/) | (g/B/G/B/)!p! GA | (Bc/A/) (Bc/A/) | %18
 B/!>(!G/B/G/ B/G/A/!>)!^F/ |!pp! ([B,G]/=E/[CA]/^F/) ([B,G]/E/[CA]/F/) | %20
 ([B,G]/E/[CA]/^F/ [B,G]/E/[CA]/F/) | ([B,G]/E/[CA]/^F/)!pp! GF | (=F/[A,C])[A,C]/"_cresc." ED | %23
 C2 (^F/[A,C])[A,C]/ | [G,CG]!p![A,C=F] !arpeggio![G,B,E][F,B,D] | (G,/C/E/G/)!mf!!<(! c^c!<)! | %26
 d[CE_B][CEA][CEG] | G^F (3(A_B=B) | c[_B,D_A][B,DG][B,DF] | (F_E)!p! G^G | %30
 A ([A,=CF][A,CE][A,CD] |a) ([Acf][Ace][Acd] |!8va(! a') ([gbf'][gbe'][gbd']- | %33
 [gbd'])!8va)! z!p! (G,/[CE]/^G,/[CE]/) | (A,/[B,F])[B,F]/ =G,/[B,E]/F,/[B,D]/ | %35
 (E,/[CE])[CE]/ (^F/[A,C])[A,C]/ | G^F =F2 | E2 (G,/[EG]/A,/[EG]/) | %38
"_cresc." (B,/[GB])[GB]/ (C/[GB])[GB]/ | (^C/[GB])[GB]/!mf! (D/[GB])[GB]/ | %40
 (E/[^Fc])[Fc]/ (D/[FB]/C/[FA]/) | (g/B/G/B/)!p! GA | (Bc/A/) (Bc/A/) | %43
 (B/!>(!G/B/G/ B/G/A/^F/)!>)! |!pp! ([B,G]/=E/[CA]/^F/) ([B,G]/E/[CA]/F/) | %45
 ([B,G]/E/[CA]/^F/ [B,G]/E/[CA]/F/) | ([B,G]/E/[CA]/^F/)!pp! GF | (=F/[A,C])[A,C]/"_cresc." ED | %48
 C2 (^F/[A,C])[A,C]/ | [G,CG]!p![A,C=F] !arpeggio![G,B,E][F,B,D] | %50
[I:staff +1] (E,G,/C/[I:staff -1] E/G/c/e/ | [eg]2)[I:staff +1] [E,CE]2- |[I:staff -1] [cec']4 |] %53
V:4
 z4 |"^a capriccio." G,,, D,E,F, |"^string." [E,G,]3 z | G,,, D,E,F, |"^string." [E,G,]3 z | %5
 G,,, (D,E,F, | G,,) (DEF | G,)[K:treble] (def- | [Gf]) z z2 |[K:bass] [G,,,G,,]4 | %10
 [C,,G,,]2 ^D,2 | E,_E, D,G,, | C,2 z2 | !>![A,,,A,,]E,, !>![A,,,A,,]E,, | !>![A,,,A,,]2 D,,2 | %15
 D,2 D,,2 | [G,,,G,,]D, B,C | D_E/C/ DE/C/ | [G,D] z z2 |"^poco rit." [E,,B,,]2 [E,,B,,]2 | %20
 [E,,,E,,]4- | [E,,,E,,] z E,"^molto rit."_E, | D,2 [G,,,G,,]2 | [A,,,A,,]2 D,^D, | %24
"^rit." [G,,E,]=D, [G,,,G,,]2 | !arpeggio![C,,G,,E,]2 z2 | C,, (G,A,_B, | [A,C]3) z | %28
"^dolce." _B,,, (F,G,_A, | G,2) z2 | !>!G,,, (D,E,F, |"^dim." !>!G,,) (DEF | %32
 !>!G,)[K:treble] (def- | [Gf]) z z2 |[K:bass] [G,,,G,,]4 | [C,,G,,]2 ^D,2 | E,_E, D,G,, | C,2 z2 | %38
 [A,,,A,,]E,, [A,,,A,,]E,, | [A,,,A,,]2 D,,2 | D,2 D,,2 |!ped! [G,,,G,,]D,!ped-up! B,C | %42
 D_E/C/ DE/C/ | [G,D] z z2 |"^poco rit." [E,,B,,]2 [E,,B,,]2 | [E,,,E,,]4- | %46
 [E,,,E,,] z"^molto rit." E,_E, | D,2 [G,,,G,,]2 | [A,,,A,,]2 D,^D, | %49
"^rit." [G,,E,]=D, [G,,,G,,]2 |!ped! [C,,G,,]C,/E,/ G,/[I:staff -1]C/E/G/ | %51
[I:staff +1] x2 [C,,G,,C,]2- | [E,CE]4!ped-up! |] %53
V:5
 x4 | x4 | _B,3 z | x4 | _B,3 z | x4 | x4 |!8va(! x4 | x!8va)! x G,^G, | A,2 G,F, | E,2 ^F2 | %11
 G/[G,C]/^F/[A,C]/ (=F/[G,B,])[G,B,]/ | (E/[G,C])[G,C]/ G,A, | B,2 C2 | ^C2 D^D | E2 DC | %16
 x2 G/D/A/G/ | B/G/^F B/G/F | z _EDC | x4 | x4 | x2 G/[G,C]/^F/[^G,C]/ | F2 E/[G,B,]/D/[F,B,]/ | %23
 (C/[E,A,])[E,A,]/ ^F2 | x4 | x4 | x4 | _E3 z | x4 | _B,2 z2 | x4 | x4 |!8va(! x4 | %33
 x!8va)! x G,^G, | A,2 G,F, | E,2 ^F2 | G/[G,C]/^F/[A,C]/ (=F/[G,B,])[G,B,]/ | %37
 (E/[G,C])[G,C]/ G,A, | B,2 C2 | ^C2 D^D | E2 DC | g2 G/D/A/G/ | B/G/^F B/G/F | z _EDC | x4 | x4 | %46
 x2 G/[G,C]/^F/[^G,C]/ | F2 E/[G,B,]/D/[F,B,]/ | (C/[E,A,])[E,A,]/ ^F2 | x4 | x4 | c2 x2 | [CG]4 |] %53
V:6
 x4 | x4 | x4 | x4 | x4 | x4 | x4 | x[K:treble] x3 | x4 |[K:bass] x4 | x4 | x4 | x4 | x4 | x4 | %15
 x4 | x4 | G,2 G,2 | x4 | x4 | x4 | x4 | x4 | x4 | x4 | x4 | x4 | x4 | x4 | x4 | x4 | x4 | %32
 x[K:treble] x3 | x4 |[K:bass] x4 | x4 | x4 | x4 | x4 | x4 | x4 | x4 | G,2 G,2 | x4 | x4 | x4 | %46
 x4 | x4 | x4 | x4 | x4 | x4 | [C,,G,,C,]4 |] %53

